X:1
T:Title
%%score { ( 1 4 ) | ( 2 3 ) }
L:1/8
M:4/4
K:F
V:1 treble nm="Grand Piano"
V:4 treble 
V:2 bass 
V:3 bass 
V:1
 z4 z2[Q:1/4=106] C2 | F3 A [EG]2 E2 | F2 A2 c2 c2 | d2 c2 A2 F2 | G6 z2 | F3 A [EG]2 E2 | %6
 F2 A2 c2 [Af]2 | e3 c A2 d2 | [Ec]6 [Fc]2 | [Ed]3 [Ec] [EB]2 [EG]2 | [Fc]4 [FA]2 A2 | %11
 B2 A2 G2 F2 | c6 z2 | F3 G A2 B2 |[M:9/8] c3- c [Fd]2- [Fd][DFB]G |[M:4/4] F2 EF [CFA]2 G2 | %16
[M:3/4] F6 |[M:1/4] c>c |[M:4/4] c6 z2 | c6 z2 | d2 c2 A2 F2 | [EG]4 [Ec]2 C2 | F3 G A2 B2 | %23
[M:9/8] c3- c [Fd]2- [Fd][DGB]G |[M:4/4] F2 EF [CFA]3 [B,CG] |[M:3/4] [A,CF]6 |] %26
V:2
 z4 z2 [F,A,]2 | [F,A,C]3 [F,CF] [C,C]2 [C,B,C]2 | F,2- [F,CF]2[K:treble] [F,A,F]2 [A,CF]2 | %3
 [B,F]2 [A,CF]2 [F,CF]2[K:bass] [F,A,]2 | [C,C]2 [D,=B,]2 [C,C]2 [E,_B,]2 | %5
 [F,A,C]3 [F,CF] [C,C]2 [C,B,C]2 | [A,C]2 z2 z4 | [G,CG]3 [G,CE] [G,=B,F]2 [G,B,F]2 | %8
 [C,C]6 [C,A,]2 | [C,B,]3 [C,B,] [C,G,]2 [C,B,]2 | [C,A,]4 [C,C]2 [F,CF]2 | %11
 [G,CE]2 [F,CF]2 [E,C]2 [D,=B,D]2 | [C,C]2 [D,=B,]2 [E,C]2 [E,_B,]2 | %13
 [F,A,C]3 [F,B,C] [F,CF]2 [F,G,F]2 |[M:9/8] [F,A,F]3- [F,A,F] [B,,B,]2- [B,,B,] z [B,D] | %15
[M:4/4] [C,A,C]2 G,A, C,2 [C,B,C]2 |[M:3/4] [F,A,C]6 |[M:1/4] z2 | %18
[M:4/4] z2 [C,G,]>[C,G,] [F,A,]2 z2 | z2 [C,G,]>[C,G,] [F,A,]2[K:treble] [A,CF]2 | %20
 [B,F]2 [A,CF]2[K:bass] [F,CF]2 [F,A,]2 | [C,C]4 [C,G,]2 [E,B,]2 | %22
 [F,A,C]3 [F,B,C] [F,CF]2 [F,G,F]2 |[M:9/8] [F,A,F]3- [F,A,F] [B,,B,]2- [B,,B,] z [B,D] | %24
[M:4/4] z2 [C,C]2 z4 |[M:3/4] F,6 |] %26
V:3
 x8 | x8 | [A,C]2 z2[K:treble] z4 | x6[K:bass] x2 | x8 | x8 | F,2- [F,CF]2 [F,A,F]2 [F,C]2 | x8 | %8
 x8 | x8 | x8 | x8 | x8 | x8 |[M:9/8] z3 z3 z B,,2 |[M:4/4] z2 [C,C]2 z4 |[M:3/4] x6 |[M:1/4] x2 | %18
[M:4/4] x8 | x6[K:treble] x2 | x4[K:bass] x4 | x8 | x8 |[M:9/8] z3 z3 z B,,2 | %24
[M:4/4] [C,A,C]2 G,A, C,3 C, |[M:3/4] x6 |] %26
V:4
 x8 | x8 | x8 | x8 | E2 F2 E2 C2 | x8 | x8 | x8 | x8 | x8 | x8 | x8 | E2 F2 G2 C2 | x8 | %14
[M:9/8] x9 |[M:4/4] x8 |[M:3/4] x6 |[M:1/4] x2 |[M:4/4] z2 E>E F2 c>c | z2 E>E F2 c2 | x8 | x8 | %22
 x8 |[M:9/8] x9 |[M:4/4] x8 |[M:3/4] x6 |] %26

